X: 26835
T: Milltown Lasses, The
R: reel
M: 4/4
K: Edorian
FE~E2 FD~D2|FE~E2 dBAB|FE~E2 FDFA|B/c/d AB FABA|
FE~E2 FD~D2|FE~E2 dBAB|FE~E2 FDFA|B/c/d AB FEE2||
Be~e2 fe~e2|Beec|dBA2|Be~e2 fe~e2|BABc dBA2|
Be~e2 fede|fgfe dcde|f/g/a ec dcBA|{c}BABc dBAG||

